src/icons/solid/users/contact.svg

<svg xmlns="http://www.w3.org/2000/svg" width="24" height="24" fill="none" viewBox="0 0 24 24"><g clip-path="url(#a)"><path fill="currentColor" fill-rule="evenodd" d="M6.21 1c-.51 0-.92.41-.92.92s.41.92.92.92h11.48c.51 0 .92-.41.92-.92S18.2 1 17.69 1zM2.67 4.89c0-.51.41-.92.92-.92h16.73c.51 0 .92.41.92.92s-.41.92-.92.92H3.59c-.51 0-.92-.41-.92-.92m1.77 2.19C2.52 7.08 1 8.53 1 10.45v9.18C1 21.55 2.52 23 4.44 23h15.12c1.83 0 3.44-1.54 3.44-3.37v-9.18c0-1.92-1.52-3.37-3.44-3.37zm7.51 7.53c1.4 0 2.53-1.13 2.53-2.53s-1.13-2.53-2.53-2.53c-1.4.03-2.51 1.18-2.48 2.58a2.526 2.526 0 0 0 2.48 2.48m-4.36 5.26c-.03.25.18.46.44.46h7.85c.25 0 .46-.21.44-.46a4.357 4.357 0 0 0-4.36-3.92c-2.25 0-4.13 1.69-4.36 3.92z" clip-rule="evenodd"/></g><defs><clipPath id="a"><path fill="currentColor" d="M0 0h24v24H0z"/></clipPath></defs></svg>

<svg width="24" height="24" viewBox="0 0 24 24" fill="none" xmlns="http://www.w3.org/2000/svg">
<g clip-path="url(#clip0_92_740)">
<path fill-rule="evenodd" clip-rule="evenodd" d="M6.21 1C5.7 1 5.29 1.41 5.29 1.92C5.29 2.43 5.7 2.84 6.21 2.84H17.69C18.2 2.84 18.61 2.43 18.61 1.92C18.61 1.41 18.2 1 17.69 1H6.21ZM2.67 4.89C2.67 4.38 3.08 3.97 3.59 3.97H20.32C20.83 3.97 21.24 4.38 21.24 4.89C21.24 5.4 20.83 5.81 20.32 5.81H3.59C3.08 5.81 2.67 5.4 2.67 4.89ZM4.44 7.08C2.52 7.08 1 8.53 1 10.45V19.63C1 21.55 2.52 23 4.44 23H19.56C21.39 23 23 21.46 23 19.63V10.45C23 8.53 21.48 7.08 19.56 7.08H4.44ZM11.95 14.61C13.35 14.61 14.48 13.48 14.48 12.08C14.48 10.68 13.35 9.55 11.95 9.55C10.55 9.58 9.44 10.73 9.47 12.13C9.5 13.49 10.59 14.59 11.95 14.61ZM7.59 19.87C7.56 20.12 7.77 20.33 8.03 20.33H15.88C16.13 20.33 16.34 20.12 16.32 19.87C16.09 17.63 14.21 15.94 11.96 15.95C9.71 15.95 7.83 17.64 7.6 19.87H7.59Z" fill="#1D1B20"/>
</g>
<defs>
<clipPath id="clip0_92_740">
<rect width="24" height="24" fill="white"/>
</clipPath>
</defs>
</svg>
